icons/pass-fill.svg

<svg width="16" height="16" viewBox="0 0 16 16" fill="none" xmlns="http://www.w3.org/2000/svg">
<path d="M10 0C10 1.10457 9.10457 2 8 2C6.89543 2 6 1.10457 6 0H3.5C2.67157 0 2 0.671573 2 1.5V14.5C2 15.3284 2.67157 16 3.5 16H12.5C13.3284 16 14 15.3284 14 14.5V1.5C14 0.671573 13.3284 0 12.5 0H10ZM4.5 5H11.5C11.7761 5 12 5.22386 12 5.5C12 5.77614 11.7761 6 11.5 6H4.5C4.22386 6 4 5.77614 4 5.5C4 5.22386 4.22386 5 4.5 5ZM4.5 7H8.5C8.77614 7 9 7.22386 9 7.5C9 7.77614 8.77614 8 8.5 8H4.5C4.22386 8 4 7.77614 4 7.5C4 7.22386 4.22386 7 4.5 7Z" fill="black"/>
</svg>

<svg xmlns="http://www.w3.org/2000/svg" width="16" height="16" fill="currentColor" class="bi bi-pass-fill" viewBox="0 0 16 16">
  <path d="M10 0a2 2 0 1 1-4 0H3.5A1.5 1.5 0 0 0 2 1.5v13A1.5 1.5 0 0 0 3.5 16h9a1.5 1.5 0 0 0 1.5-1.5v-13A1.5 1.5 0 0 0 12.5 0H10ZM4.5 5h7a.5.5 0 0 1 0 1h-7a.5.5 0 0 1 0-1Zm0 2h4a.5.5 0 0 1 0 1h-4a.5.5 0 0 1 0-1Z"/>
</svg>
